X: 36
T:The Da
M:2/4
L:1/8
K:D
F2 F2|F2 EF|A2 A2|B2 AF|D2 E2|DC3|D4 -|D2 AA|B3A|B3d|
F2 FE|D2 FG|A2 F2|d2 F2|E4 -|E2 DE|F2 F2|F2 EF|A2 A2|B2 AF|D2 E2|DC3|D4||
